src/icons/profile-Darkmode .svg

<svg width="19" height="20" viewBox="0 0 19 20" fill="none" xmlns="http://www.w3.org/2000/svg">
<mask id="path-1-outside-1_88_676" maskUnits="userSpaceOnUse" x="0" y="11.1667" width="19" height="8" fill="black">
<rect fill="white" y="11.1667" width="19" height="8"/>
<path d="M16.2222 18.5001V16.7223C16.2222 15.7793 15.8476 14.8749 15.1808 14.2081C14.514 13.5414 13.6097 13.1667 12.6667 13.1667H5.55556C4.61256 13.1667 3.70819 13.5414 3.0414 14.2081C2.3746 14.8749 2 15.7793 2 16.7223V18.5001"/>
</mask>
<path d="M12.6667 13.1667V11.3667V13.1667ZM5.55556 13.1667V11.3667V13.1667ZM2 16.7223H0.2H2ZM18.0222 18.5001V16.7223H14.4222V18.5001H18.0222ZM18.0222 16.7223C18.0222 15.3019 17.458 13.9397 16.4536 12.9354L13.908 15.4809C14.2373 15.8102 14.4222 16.2567 14.4222 16.7223H18.0222ZM16.4536 12.9354C15.4493 11.931 14.087 11.3667 12.6667 11.3667V14.9667C13.1323 14.9667 13.5788 15.1517 13.908 15.4809L16.4536 12.9354ZM12.6667 11.3667H5.55556V14.9667H12.6667V11.3667ZM5.55556 11.3667C4.13517 11.3667 2.77297 11.931 1.76861 12.9354L4.31419 15.4809C4.64342 15.1517 5.08995 14.9667 5.55556 14.9667V11.3667ZM1.76861 12.9354C0.764244 13.9397 0.2 15.3019 0.2 16.7223H3.8C3.8 16.2567 3.98496 15.8102 4.31419 15.4809L1.76861 12.9354ZM0.2 16.7223V18.5001H3.8V16.7223H0.2Z" fill="#D2D2D2" mask="url(#path-1-outside-1_88_676)"/>
<path d="M9.11122 10.5111C11.572 10.5111 13.5668 8.51629 13.5668 6.05556C13.5668 3.59482 11.572 1.6 9.11122 1.6C6.65048 1.6 4.65566 3.59482 4.65566 6.05556C4.65566 8.51629 6.65048 10.5111 9.11122 10.5111Z" stroke="#D2D2D2" stroke-width="1.8" stroke-linejoin="round"/>
</svg>

<svg xmlns="http://www.w3.org/2000/svg" width="19" height="20" fill="none"><mask id="a" width="19" height="8" x="0" y="11.167" fill="#000" maskUnits="userSpaceOnUse"><path fill="#fff" d="M0 11.167h19v8H0z"/><path d="M16.222 18.5v-1.778a3.556 3.556 0 0 0-3.555-3.555H5.556A3.556 3.556 0 0 0 2 16.722V18.5"/></mask><path fill="#D2D2D2" d="M12.667 13.167v-1.8 1.8Zm-7.111 0v-1.8 1.8ZM2 16.722H.2 2ZM18.022 18.5v-1.778h-3.6V18.5h3.6Zm0-1.778c0-1.42-.564-2.782-1.568-3.787l-2.546 2.546c.33.33.514.776.514 1.241h3.6Zm-1.568-3.787a5.355 5.355 0 0 0-3.787-1.568v3.6c.465 0 .912.185 1.241.514l2.546-2.546Zm-3.787-1.568H5.556v3.6h7.11v-3.6Zm-7.111 0c-1.42 0-2.783.564-3.787 1.568l2.545 2.546c.33-.33.776-.514 1.242-.514v-3.6Zm-3.787 1.568A5.355 5.355 0 0 0 .2 16.722h3.6c0-.465.185-.912.514-1.241L1.77 12.935ZM.2 16.722V18.5h3.6v-1.778H.2Z" mask="url(#a)"/><path stroke="#D2D2D2" stroke-linejoin="round" stroke-width="1.8" d="M9.111 10.511a4.456 4.456 0 1 0 0-8.911 4.456 4.456 0 0 0 0 8.911Z"/></svg>
